img/certificate/icon3.svg

<svg width="250" height="42" viewBox="0 0 250 42" fill="none" xmlns="http://www.w3.org/2000/svg">
<path fill-rule="evenodd" clip-rule="evenodd" d="M22.5948 32.3808C24.0084 30.8889 24.7148 28.892 24.7148 26.387C24.7148 23.8836 24.0084 21.8857 22.5948 20.3939C21.1811 18.902 19.3742 18.1567 17.1725 18.1567C14.9704 18.1567 13.1527 18.902 11.7226 20.3939C10.2904 21.8857 9.57418 23.8836 9.57418 26.387C9.57418 28.892 10.2904 30.8889 11.7226 32.3808C13.1527 33.8726 14.9704 34.6182 17.1725 34.6182C19.3742 34.6182 21.1811 33.8726 22.5948 32.3808ZM8.77676 39.7278C6.29843 38.4207 4.3618 36.6068 2.96868 34.2865C1.57173 31.9669 0.876221 29.3343 0.876221 26.387C0.876221 23.4414 1.57173 20.8078 2.96868 18.4878C4.3618 16.1678 6.29843 14.3543 8.77676 13.0468C11.2533 11.7404 14.0523 11.0859 17.1725 11.0859C20.2908 11.0859 23.0808 11.7404 25.5406 13.0468C28.0002 14.3543 29.9256 16.1678 31.3226 18.4878C32.7157 20.8078 33.4132 23.4414 33.4132 26.387C33.4132 29.3343 32.7157 31.9669 31.3226 34.2865C29.9256 36.6068 28.0002 38.4207 25.5406 39.7278C23.0808 41.0356 20.2908 41.6886 17.1725 41.6886C14.0523 41.6886 11.2533 41.0356 8.77676 39.7278Z" fill="#FEFEFE"/>
<path fill-rule="evenodd" clip-rule="evenodd" d="M66.0333 14.3997C68.291 16.6097 69.4207 19.8875 69.4207 24.2324V41.2467H60.8319V25.5585C60.8319 23.2024 60.3162 21.4434 59.2903 20.2829C58.2626 19.1235 56.775 18.5429 54.831 18.5429C52.6642 18.5429 50.939 19.2157 49.6555 20.5592C48.3698 21.9041 47.7282 23.9014 47.7282 26.5523V41.2467H39.1394V11.5279H47.3423V15.0074C48.4793 13.7556 49.8929 12.7899 51.5829 12.1078C53.269 11.4264 55.124 11.0859 57.1423 11.0859C60.8132 11.0859 63.7777 12.1904 66.0333 14.3997Z" fill="#FEFEFE"/>
<path d="M77.7351 41.2464H84.6172V0.257812H77.7351V41.2464Z" fill="#FEFEFE"/>
<path d="M113.134 33.1828C114.787 31.4891 115.612 29.2604 115.612 26.4981C115.612 23.7362 114.787 21.5081 113.134 19.8145C111.483 18.121 109.391 17.2731 106.859 17.2731C104.327 17.2731 102.242 18.121 100.609 19.8145C98.977 21.5081 98.1586 23.7362 98.1586 26.4981C98.1586 29.2604 98.977 31.4891 100.609 33.1828C102.242 34.8764 104.327 35.7232 106.859 35.7232C109.391 35.7232 111.483 34.8764 113.134 33.1828ZM98.8212 39.7004C96.4334 38.4116 94.5712 36.6167 93.2319 34.3142C91.8925 32.0139 91.2229 29.4083 91.2229 26.4981C91.2229 23.5889 91.8925 20.9937 93.2319 18.7092C94.5712 16.4263 96.4334 14.6405 98.8212 13.3517C101.207 12.0626 103.885 11.418 106.859 11.418C109.868 11.418 112.565 12.0626 114.952 13.3517C117.338 14.6405 119.2 16.4263 120.54 18.7092C121.879 20.9937 122.55 23.5889 122.55 26.4981C122.55 29.4083 121.879 32.0139 120.54 34.3142C119.2 36.6167 117.338 38.4116 114.952 39.7004C112.565 40.9904 109.868 41.6341 106.859 41.6341C103.885 41.6341 101.207 40.9904 98.8212 39.7004Z" fill="#FEFEFE"/>
<path d="M148.645 33.1828C150.298 31.4891 151.123 29.2604 151.123 26.4981C151.123 23.7362 150.298 21.5081 148.645 19.8145C146.994 18.121 144.902 17.2731 142.369 17.2731C139.837 17.2731 137.752 18.121 136.12 19.8145C134.487 21.5081 133.669 23.7362 133.669 26.4981C133.669 29.2604 134.487 31.4891 136.12 33.1828C137.752 34.8764 139.837 35.7232 142.369 35.7232C144.902 35.7232 146.994 34.8764 148.645 33.1828ZM134.331 39.7004C131.944 38.4116 130.081 36.6167 128.742 34.3142C127.403 32.0139 126.733 29.4083 126.733 26.4981C126.733 23.5889 127.403 20.9937 128.742 18.7092C130.081 16.4263 131.944 14.6405 134.331 13.3517C136.717 12.0626 139.396 11.418 142.369 11.418C145.378 11.418 148.075 12.0626 150.463 13.3517C152.848 14.6405 154.71 16.4263 156.05 18.7092C157.389 20.9937 158.061 23.5889 158.061 26.4981C158.061 29.4083 157.389 32.0139 156.05 34.3142C154.71 36.6167 152.848 38.4116 150.463 39.7004C148.075 40.9904 145.378 41.6341 142.369 41.6341C139.396 41.6341 136.717 40.9904 134.331 39.7004Z" fill="#FEFEFE"/>
<path d="M176.669 28.5967L171.549 33.4571V41.2464H164.667V0.257812H171.549V25.0054L185.808 11.748H194.067L181.788 24.1224L195.223 41.2464H186.855L176.669 28.5967Z" fill="#FEFEFE"/>
<path d="M205.655 18.9026C204.132 20.2101 203.205 21.9505 202.874 24.1234H219.556C219.261 21.9875 218.364 20.2558 216.859 18.9306C215.353 17.6045 213.481 16.9418 211.242 16.9418C209.041 16.9418 207.178 17.5961 205.655 18.9026ZM225.999 28.7076H202.93C203.333 30.8812 204.388 32.6019 206.095 33.8732C207.802 35.1436 209.922 35.778 212.454 35.778C215.683 35.778 218.345 34.7107 220.438 32.5751L224.126 36.8279C222.805 38.4116 221.135 39.6094 219.117 40.4192C217.097 41.2296 214.823 41.6341 212.289 41.6341C209.059 41.6341 206.214 40.9904 203.756 39.7004C201.296 38.4116 199.396 36.6167 198.057 34.3142C196.718 32.0139 196.048 29.4083 196.048 26.4981C196.048 23.6254 196.699 21.0392 198.001 18.7369C199.306 16.4356 201.112 14.6405 203.425 13.3517C205.737 12.0626 208.343 11.418 211.242 11.418C214.107 11.418 216.667 12.0533 218.924 13.3237C221.182 14.5941 222.942 16.3809 224.209 18.6821C225.476 20.9834 226.109 23.645 226.109 26.6639C226.109 27.1432 226.071 27.8243 225.999 28.7076Z" fill="#FEFEFE"/>
<path d="M249.729 11.418V17.9917C249.141 17.8807 248.608 17.826 248.131 17.826C245.451 17.826 243.36 18.6086 241.856 20.173C240.35 21.7393 239.598 23.9938 239.598 26.9401V41.2473H232.716V11.749H239.268V16.0579C241.249 12.9643 244.737 11.418 249.729 11.418Z" fill="#FEFEFE"/>
</svg>

<svg width="250" height="42" fill="none" xmlns="http://www.w3.org/2000/svg"><path fill-rule="evenodd" clip-rule="evenodd" d="M22.595 32.38c1.413-1.491 2.12-3.488 2.12-5.993 0-2.503-.707-4.501-2.12-5.993-1.414-1.492-3.22-2.237-5.422-2.237-2.203 0-4.02.745-5.45 2.237-1.433 1.492-2.149 3.49-2.149 5.993 0 2.505.716 4.502 2.149 5.994 1.43 1.492 3.247 2.237 5.45 2.237 2.201 0 4.008-.745 5.422-2.237zM8.777 39.729c-2.479-1.307-4.415-3.121-5.808-5.442-1.397-2.32-2.093-4.952-2.093-7.899 0-2.946.696-5.58 2.093-7.9 1.393-2.32 3.33-4.133 5.808-5.44 2.476-1.307 5.275-1.961 8.396-1.961 3.118 0 5.908.654 8.368 1.96 2.46 1.308 4.385 3.122 5.782 5.442 1.393 2.32 2.09 4.953 2.09 7.899 0 2.947-.697 5.58-2.09 7.9-1.397 2.32-3.323 4.134-5.782 5.44-2.46 1.309-5.25 1.962-8.369 1.962-3.12 0-5.919-.653-8.395-1.961zM66.033 14.4c2.258 2.21 3.388 5.487 3.388 9.832v17.015h-8.59V25.558c0-2.356-.515-4.115-1.54-5.275-1.028-1.16-2.516-1.74-4.46-1.74-2.167 0-3.892.673-5.175 2.016-1.286 1.345-1.928 3.342-1.928 5.993v14.695H39.14v-29.72h8.203v3.48c1.137-1.251 2.55-2.217 4.24-2.9 1.687-.68 3.542-1.021 5.56-1.021 3.671 0 6.636 1.104 8.891 3.314z" fill="#FEFEFE"/><path d="M77.735 41.246h6.882V.258h-6.882v40.988zm35.399-8.063c1.653-1.694 2.478-3.923 2.478-6.685 0-2.762-.825-4.99-2.478-6.684-1.651-1.693-3.743-2.54-6.275-2.54-2.532 0-4.617.847-6.25 2.54-1.632 1.694-2.45 3.922-2.45 6.684s.818 4.991 2.45 6.685c1.633 1.693 3.718 2.54 6.25 2.54s4.624-.847 6.275-2.54zM98.821 39.7c-2.388-1.288-4.25-3.083-5.59-5.386-1.338-2.3-2.008-4.906-2.008-7.816s.67-5.504 2.009-7.789c1.34-2.283 3.201-4.069 5.59-5.357 2.385-1.29 5.063-1.934 8.037-1.934 3.009 0 5.706.645 8.093 1.934 2.386 1.288 4.248 3.074 5.588 5.357 1.339 2.285 2.01 4.88 2.01 7.79s-.671 5.515-2.01 7.815c-1.34 2.303-3.202 4.098-5.588 5.386-2.387 1.29-5.084 1.934-8.093 1.934-2.974 0-5.652-.644-8.038-1.934zm49.824-6.517c1.653-1.694 2.478-3.923 2.478-6.685 0-2.762-.825-4.99-2.478-6.684-1.651-1.693-3.743-2.54-6.276-2.54-2.532 0-4.617.847-6.249 2.54-1.633 1.694-2.451 3.922-2.451 6.684s.818 4.991 2.451 6.685c1.632 1.693 3.717 2.54 6.249 2.54 2.533 0 4.625-.847 6.276-2.54zM134.331 39.7c-2.387-1.288-4.25-3.083-5.589-5.386-1.339-2.3-2.009-4.906-2.009-7.816s.67-5.504 2.009-7.789c1.339-2.283 3.202-4.069 5.589-5.357 2.386-1.29 5.065-1.934 8.038-1.934 3.009 0 5.706.645 8.094 1.934 2.385 1.288 4.247 3.074 5.587 5.357 1.339 2.285 2.011 4.88 2.011 7.79s-.672 5.515-2.011 7.815c-1.34 2.303-3.202 4.098-5.587 5.386-2.388 1.29-5.085 1.934-8.094 1.934-2.973 0-5.652-.644-8.038-1.934zm42.338-11.103l-5.12 4.86v7.79h-6.882V.256h6.882v24.748l14.259-13.257h8.259l-12.279 12.374 13.435 17.124h-8.368l-10.186-12.65zm28.986-9.694c-1.523 1.307-2.45 3.048-2.781 5.22h16.682c-.295-2.136-1.192-3.867-2.697-5.192-1.506-1.326-3.378-1.99-5.617-1.99-2.201 0-4.064.655-5.587 1.962zm20.344 9.805H202.93c.403 2.173 1.458 3.894 3.165 5.165 1.707 1.27 3.827 1.905 6.359 1.905 3.229 0 5.891-1.067 7.984-3.203l3.688 4.253c-1.321 1.584-2.991 2.781-5.009 3.591-2.02.81-4.294 1.215-6.828 1.215-3.23 0-6.075-.644-8.533-1.934-2.46-1.288-4.36-3.083-5.699-5.386-1.339-2.3-2.009-4.906-2.009-7.816 0-2.873.651-5.459 1.953-7.761a13.898 13.898 0 015.424-5.385c2.312-1.29 4.918-1.934 7.817-1.934 2.865 0 5.425.635 7.682 1.906 2.258 1.27 4.018 3.057 5.285 5.358 1.267 2.301 1.9 4.963 1.9 7.982 0 .48-.038 1.16-.11 2.044zm23.73-17.29v6.574a8.685 8.685 0 00-1.598-.166c-2.68 0-4.771.783-6.275 2.347-1.506 1.566-2.258 3.82-2.258 6.767v14.307h-6.882V11.75h6.552v4.309c1.981-3.094 5.469-4.64 10.461-4.64z" fill="#FEFEFE"/></svg>
